X:1
T:The Christmas Night
T:The Christmas Night
T:Robert Frank Lehman
T:Alilce Jean Cleator, 1901
T:Public Domain Courtesy of the Cyber Hymnal™
T:Public Domain Courtesy of the Cyber Hymnal™
C:Robert Frank Lehman
Z:Public Domain
Z:Courtesy of the Cyber Hymnal™
%%score ( 1 2 ) 3
L:1/8
Q:1/4=93
M:3/4
K:C
V:1 treble 
V:2 treble 
V:3 bass 
V:1
 [CE][CE] | [CE]3 [CE] [B,D]C | [B,F]2 [B,F]2 [B,F][B,F] | [DF]3 [DF] [CE][B,D] | %4
w: 1.~All the|ci- ty lies in|sleep- ing, O’er the|sea a si- lence|
w: 2.~Lo! a|star- ry light is|shin- ing, Mu- sic|thrills the arch of|
w: 3.~In a|shel- ter rude and|low- ly Shep- herds|find the Prince of|
 [EG]3 z [EG][EG] | [^CG]3 [CG] [CF][CE] | [DF]2 [DF]2 [DF][DF] | [DF]3 [DF] [CE][B,D] | [CE]3 z || %9
w: reigns; Low- ly|shep- herds watch are|keep- ing O’er their|flocks on Ju- dah’s|plains.|
w: night. Shep- herds|on the plains re-|clin- ing Rise to|greet the song and|light.|
w: Light; O how|beau- ti- ful and|ho- ly Was that|hap- py Christ- mas|night.|
"^Refrain" G>G | [EG]3 [EA] [EB][Ec] | [Fc]2 [FB]2"^Girls" G>G | %12
w: |||
w: Hark the|song, the song of|an- gels, “News of|
w: |||
"^Voices in distance" [df]>[ce] [Bd][Ac] [GB][FA] | ([FA]2 [EG]2)"^All" G>G | [EG]3 [EA] [EB][Ec] | %15
w: |||
w: joy and peace we glad- ly|bring; * In the|fa- vored ci- ty|
w: |||
 [Fc]2 [FB]2"^Girls" G>G | [df]>[ce] [Bd][Ac] [GB][FA] | ([FA]2 [EG]2)"^All" [EG]>[EG] | %18
w: |||
w: yon- der, Christ is|born, is born to- day a|king.” * In the|
w: |||
 [E_B]3 [Ec] [Ee][Ed] | [Fd]2 [Fc]2 [^DB][DA] | [EG]3 [EG] [FA][FB] | [Ec]2 z2 |] %22
w: ||||
w: fa- vored ci- ty|yon- der, Christ is|born to- day a|king.|
w: ||||
V:2
 x2 | x5 C | x6 | x6 | x6 | x6 | x6 | x6 | x4 || G>G | x6 | x4 G>G | x6 | x4 G>G | x6 | x4 G>G | %16
 x6 | x6 | x6 | x6 | x6 | x4 |] %22
V:3
 z2 | ([C,G,][G,,G,]) [B,,G,]2 [G,,G,]2 | ([D,G,][G,,G,]) [D,G,]2 [G,,G,]2 | %3
 ([B,,G,][G,,G,] [B,,G,]2) [G,,G,]2 | ([C,G,][G,,G,] [C,G,]2) z2 | %5
 ([E,A,][A,,A,] [E,A,]2) [A,,A,]2 | ([D,A,][A,,A,]) [D,A,]2 [C,_A,]2 | %7
 ([B,,G,][G,,G,] [B,,G,]2) [G,,G,]2 | ([C,G,][G,,G,] [C,G,]2) || z2 | %10
 ([C,G,]>[C,G,] [C,G,])[C,G,] [C,G,][C,G,] | [D,G,]2 [D,G,]2 z2 | G,,2 [G,B,D]2 [G,B,D]2 | %13
 (C,2 [E,G,C]2) z2 | ([C,G,]>[C,G,] [C,G,])[C,G,] [C,G,][C,G,] | [D,G,]2 [D,G,]2 z2 | %16
 G,,2 [G,B,D]2 [G,B,D]2 | (C,2 [E,G,C]2) z2 | ([C,C]>[C,C] [C,C])[C,C] [C,G,][C,_B,] | %19
 [F,A,]2 [F,A,]2 [^F,B,][F,C] | [G,C]3 [G,C] [G,B,][G,D] | [C,G,C]2 z2 |] %22

